X: 40687
T: Torn Bag Apron, The
R: jig
M: 6/8
K: Gmajor
||dBG GBd|~g3 gfe|dBG GAB|AFD D2e|
dBG GBd|~g3 gAB|ced cBA|~G3 G2e|
dBG GBd|gag gfe|dBG GBd|AFD D2e|
dBG GBd|~g3 gAB|ced cBA|~G3 ABc||
d2B d2B|d2B dgf|e2c e2c|e2c ege|
d2B d2B|d2B dgf|edB dBA|~G3 ABc|
d2B dgf|e2c e2c|ege ded|cBc ABc|
d2B dgf|e2c e2e|faf def|~g3 gfe||

